X:8
T:Petit Branle
S:http://www.fourwinds.demon.nl/branles.htm
Z:Jack Campin <http://www.campin.me.uk/> 2002
M:C|
L:1/8
K:G
g2|g2fe d2g2|g2fe dcB2|edef gfga|[1 gab2 a2 :|\
                                 [2 gab2 a4 ||
   B3 c d2d2|e4   d2d2|B3 c d2d2|[1 e4   d4 :|\
                                 [2 e4   d2 ||
ga|b2b2 a2g2|agfe d4  |e3 f g3 a|   bab2 a2ga|
   b2b2 a2g2|agfe d4  |e3 f gab2|[1 a4   g2 :|\
                                 [2 a4   g4 |]
